X:1
T:Brynteg, LM
T:Brynteg, LM
T:John Ambrose Lloyd (1815-1874)
T:Public Domain Courtesy of the Cyber Hymnal™
C:John Ambrose Lloyd (1815-1874)
Z:Public Domain
Z:Courtesy of the Cyber Hymnal™
%%score ( 1 2 ) ( 3 4 )
L:1/8
Q:1/4=105
M:4/4
K:G
V:1 treble 
V:2 treble 
V:3 bass 
V:4 bass 
V:1
 E2 | [EG]2 [EA]2 [^DB]2 (EF) | [EG]2 [^DF]2 E2 [EG]2 | [EA]2 [EB]2 [Ec]2 [^DB]2 | %4
 [EB]2 [EA]2 !fermata![^DB]4 [=DB]2 | [FB]2 [F^c]2 [Fd]2 [FB]2 | [Ee]2 (GA) [^DB]2 [EG]2 | %7
 [EA]2 [Ec]2 [^DB]2 (EF) | [EG]2 [^DF]2 !fermata!E2 |] %9
V:2
 E2 | x6 E2 | x4 E2 x2 | x8 | x10 | x8 | x2 E2 x4 | x6 E2 | x4 E2 |] %9
V:3
 [E,G,]2 | [E,B,]2 [C,A,]2 [B,,A,]2 (G,A,) | [G,,B,]2 [B,,A,]2 [E,G,]2 [E,B,]2 | %3
 [C,A,]2 [E,G,]2 [A,,A,]2 [B,,F,]2 | (E,G,) (F,E,) !fermata![B,,F,]4 (F,B,) | %5
 [D,B,]2 [F,^A,]2 B,2 [B,D]2 | [G,B,]2 [E,B,]2 [B,,B,]2 [E,B,]2 | %7
 [C,A,]2 [A,,A,]2 [B,,A,]2 (G,A,) | [B,,B,]2 [B,,A,]2 !fermata![E,G,]2 |] %9
V:4
 x2 | x6 C,2 | x8 | x8 | C,2 C,2 x3 B,,2 x | x4 B,2 x2 | x8 | x6 C,2 | x6 |] %9

